svg/veterinary-11.svg

<?xml version="1.0" encoding="utf-8"?>
<!-- Generator: Adobe Illustrator 19.2.1, SVG Export Plug-In . SVG Version: 6.00 Build 0)  -->
<!DOCTYPE svg PUBLIC "-//W3C//DTD SVG 1.1//EN" "http://www.w3.org/Graphics/SVG/1.1/DTD/svg11.dtd">
<svg version="1.1" id="Layer_1" xmlns="http://www.w3.org/2000/svg" xmlns:xlink="http://www.w3.org/1999/xlink" x="0px" y="0px"
	 width="11px" height="11px" viewBox="0 0 11 11" style="enable-background:new 0 0 11 11;" xml:space="preserve">
<path d="M5.5,4.32C4.2852,4.3446,3.3204,5.3493,3.345,6.5641C3.3464,6.6363,3.3515,6.7083,3.36,6.78l0,0
	C2.9264,6.9258,2.5181,7.1384,2.15,7.41C1.5186,7.8752,1.384,8.7642,1.8492,9.3955C1.8528,9.4004,1.8564,9.4052,1.86,9.41
	c0.4895,0.6043,1.3633,0.7267,2,0.28C4.3412,9.3542,4.9132,9.1728,5.5,9.17c0.5836-0.006,1.1554,0.1648,1.64,0.49
	c0.6009,0.4953,1.4896,0.4096,1.9848-0.1913C9.1299,9.4625,9.135,9.4563,9.14,9.45c0.5003-0.5528,0.4578-1.4065-0.095-1.9068
	C9.0084,7.51,8.97,7.4789,8.93,7.45L8.85,7.41C8.4703,7.1575,8.0646,6.9463,7.64,6.78l0,0c0.1438-1.2065-0.7176-2.3011-1.9241-2.445
	C5.6442,4.3265,5.5722,4.3215,5.5,4.32z M1.63,3.12C1.0889,3.3737,0.8458,4.0102,1.08,4.56c0.0427,0.5931,0.5567,1.0401,1.15,1
	c0.5411-0.2537,0.7842-0.8902,0.55-1.44C2.7373,3.5269,2.2233,3.0799,1.63,3.12z M9.37,3.12c0.5411,0.2537,0.7842,0.8902,0.55,1.44
	c-0.0427,0.5931-0.5567,1.0401-1.15,1C8.2289,5.3063,7.9858,4.6698,8.22,4.12C8.2627,3.5269,8.7767,3.0799,9.37,3.12z M3.77,1
	C3.257,1.2045,3.0069,1.7862,3.2115,2.2992C3.2142,2.3062,3.2171,2.3131,3.22,2.32c0.0792,0.5925,0.5637,1.0478,1.16,1.09
	c0.513-0.2045,0.7631-0.7862,0.5585-1.2992C4.9358,2.1038,4.9329,2.0969,4.93,2.09C4.8508,1.4975,4.3663,1.0422,3.77,1z M7.23,1
	c0.513,0.2045,0.7631,0.7862,0.5585,1.2992C7.7858,2.3062,7.7829,2.3131,7.78,2.32C7.7008,2.9125,7.2163,3.3678,6.62,3.41
	C6.107,3.2055,5.8569,2.6238,6.0615,2.1108C6.0642,2.1038,6.0671,2.0969,6.07,2.09C6.1492,1.4975,6.6337,1.0422,7.23,1z"/>
</svg>

<svg xmlns="http://www.w3.org/2000/svg" width="11" height="11">
    <path d="M5.5 4.32a2.2 2.2 0 0 0-2.14 2.46 4.4 4.4 0 0 0-1.21.63 1.42 1.42 0 0 0-.29 2 1.48 1.48 0 0 0 2 .28 2.89 2.89 0 0 1 1.64-.52 2.89 2.89 0 0 1 1.64.49c.6.495 1.49.41 1.985-.191l.015-.019a1.35 1.35 0 0 0-.21-2l-.08-.04a6.4 6.4 0 0 0-1.21-.63A2.2 2.2 0 0 0 5.5 4.32zm-3.87-1.2a1.11 1.11 0 0 0-.55 1.44 1.08 1.08 0 0 0 1.15 1 1.11 1.11 0 0 0 .55-1.44 1.08 1.08 0 0 0-1.15-1zm7.74 0c.541.254.784.89.55 1.44a1.08 1.08 0 0 1-1.15 1 1.11 1.11 0 0 1-.55-1.44 1.08 1.08 0 0 1 1.15-1zM3.77 1a1 1 0 0 0-.55 1.32 1.26 1.26 0 0 0 1.16 1.09 1 1 0 0 0 .558-1.3l-.008-.02A1.26 1.26 0 0 0 3.77 1zm3.46 0a1 1 0 0 1 .558 1.3l-.008.02a1.26 1.26 0 0 1-1.16 1.09 1 1 0 0 1-.559-1.3l.009-.02A1.26 1.26 0 0 1 7.23 1z"/>
</svg>
